public/logos/18_esp/AVT.svg

<svg version="1.1" id="Layer_1" xmlns="http://www.w3.org/2000/svg" xmlns:xlink="http://www.w3.org/1999/xlink" x="0px" y="0px"
	 width="100%" viewBox="0 0 214 246" enable-background="new 0 0 214 246" xml:space="preserve">
<path fill="#2C2B2A" opacity="1.000000" stroke="none"
	d="
M1.000000,155.000000
	C1.000000,154.555664 1.000000,154.111328 1.323291,153.737152
	C2.011567,152.780457 2.699004,151.747192 2.678739,150.728012
	C2.626100,148.080673 2.056032,145.439728 2.053510,142.795883
	C2.010144,97.333122 2.012295,51.870289 2.060457,6.407534
	C2.062080,4.875166 2.648610,3.343419 3.427459,1.891149
	C70.283226,1.979565 136.674042,1.988974 203.064850,1.989621
	C204.059158,1.989631 205.053467,1.880920 206.374847,2.041439
	C206.849716,3.824619 206.997528,5.389308 207.040131,7.415466
	C206.949921,54.262638 206.964920,100.648338 206.941223,147.411469
	C205.580856,154.672379 205.751831,162.356186 202.590073,168.253067
	C197.764725,177.252609 194.454193,187.677765 185.146042,193.788757
	C182.728851,195.375687 180.703430,197.560898 178.281311,199.138580
	C168.721741,205.365372 159.397141,212.056320 149.379730,217.450287
	C137.240128,223.986969 124.284660,229.002487 112.098671,235.461868
	C107.059578,238.132935 103.393478,239.215927 98.006622,236.165588
	C88.543869,230.807281 78.464020,226.544327 68.681763,221.742874
	C61.471298,218.203766 54.323112,214.537750 46.980953,210.616379
	C35.569298,203.095886 25.649689,194.383408 17.143215,184.079697
	C10.636286,176.197998 6.232970,167.277039 3.852357,157.324295
	C3.565469,156.124893 3.911687,153.324799 1.000000,155.000000
M187.975540,77.120728
	C187.145370,75.042686 186.315186,72.964645 185.756302,71.565727
	C180.052536,72.092430 175.149567,72.935913 170.250549,72.913544
	C160.993790,72.871269 151.741104,72.256569 142.483032,72.031952
	C138.343384,71.931511 134.294342,72.344109 133.473373,77.946617
	C133.473373,77.946617 133.062592,77.936058 132.810883,77.255707
	C130.091599,71.152626 124.874428,70.208542 117.486877,74.283157
	C119.272995,88.484917 114.697548,100.774231 106.438858,111.999847
	C103.315567,102.976646 100.379059,93.881248 96.938583,84.980652
	C96.070740,82.735519 93.591537,81.113243 91.375809,78.704742
	C86.032143,70.152107 79.272385,69.678329 73.863045,77.048012
	C75.948715,80.867332 78.245621,84.363365 79.854225,88.151672
	C84.777351,99.745804 89.132614,111.591187 94.373154,123.034576
	C96.055092,126.707306 99.803360,129.433762 102.749252,133.255981
	C107.063347,139.502045 111.063057,139.767303 116.007309,133.371872
	C124.741112,122.074661 132.264267,109.985390 136.904861,96.375755
	C138.044693,93.032928 138.082352,89.314278 138.934158,85.284737
	C139.287415,85.192085 139.640671,85.099426 140.162292,85.720032
	C140.905579,87.661156 141.648865,89.602287 142.290298,91.277420
	C146.126770,90.855217 149.502335,90.483742 152.986069,91.029976
	C152.656677,101.476646 152.331421,111.923439 151.995972,122.369919
	C151.856323,126.718552 152.697586,130.385727 158.142548,131.783234
	C160.697449,138.045624 167.704361,138.881805 174.454147,134.579437
	C174.339584,120.422836 174.235413,106.973640 174.118423,93.524544
	C174.091278,90.404114 175.986343,90.215622 178.466492,90.344711
	C182.255066,90.541916 186.184723,91.052124 189.824326,90.306290
	C194.166916,89.416382 194.720627,85.691666 193.441788,81.963570
	C192.644928,79.640533 192.701340,75.624901 187.975540,77.120728
M59.612152,79.438911
	C52.684597,70.849670 47.074135,69.661629 40.939606,74.370529
	C40.372604,77.998047 40.519470,80.788101 39.488758,83.038895
	C33.434246,96.260208 26.915771,109.270767 20.960405,122.534966
	C18.540352,127.925079 19.998682,129.839767 25.986374,131.869110
	C26.399492,136.658676 29.732931,137.322311 33.502827,136.917664
	C36.984657,136.543900 39.965836,136.104324 40.251797,131.002914
	C40.677288,123.412338 42.894924,121.996826 50.534496,121.997009
	C54.023277,121.997101 57.512062,121.998306 61.466305,122.514572
	C63.937305,125.386292 66.408310,128.258011 69.036293,131.810059
	C73.554901,138.684509 79.343620,138.755051 86.030281,132.062729
	C83.308609,126.788406 80.322945,121.652466 77.945663,116.248863
	C74.016747,107.318359 70.703812,98.113503 66.664917,89.236450
	C65.119637,85.840096 62.292492,83.026978 59.612152,79.438911
M155.320312,36.862812
	C154.237213,37.180256 153.154114,37.497704 150.784927,38.192081
	C167.070480,41.455536 171.179291,52.892460 173.463058,66.784973
	C175.700500,53.078671 179.791229,41.952095 194.250107,38.113731
	C180.032440,34.449162 175.450546,23.888388 173.497314,10.040319
	C171.342361,22.408674 167.983841,32.488071 155.320312,36.862812
M53.748749,162.800873
	C53.648849,162.668350 53.548950,162.535812 53.449051,162.403290
	C53.376476,162.699921 53.280464,162.992981 53.234756,163.293701
	C52.069660,170.959000 48.542583,176.685745 39.352177,178.763000
	C48.851158,181.251190 52.281525,187.533249 53.539757,196.628799
	C55.701130,188.222641 58.172543,181.251968 66.908714,178.919968
	C58.507271,176.603134 55.810959,170.317444 53.748749,162.800873
z"/>
<path fill="#FEFEFE" opacity="1.000000" stroke="none"
	d="
M1.000000,155.468658
	C3.911687,153.324799 3.565469,156.124893 3.852357,157.324295
	C6.232970,167.277039 10.636286,176.197998 17.143215,184.079697
	C25.649689,194.383408 35.569298,203.095886 46.922859,210.977509
	C47.793392,212.673706 48.339233,214.063049 49.352390,214.662247
	C57.613064,219.547760 65.830582,224.532928 74.314011,229.008636
	C86.094360,235.223694 98.094154,241.022812 110.000000,247.000000
	C73.745911,247.000000 37.491821,247.000000 1.000000,247.000000
	C1.000000,216.646179 1.000000,186.291748 1.000000,155.468658
z"/>
<path fill="#737372" opacity="1.000000" stroke="none"
	d="
M215.000000,158.531342
	C213.096039,165.121094 211.387939,171.311646 209.247192,177.348770
	C204.829163,189.808014 196.008545,199.033890 185.936234,206.960388
	C167.802979,221.230469 146.545975,230.010437 126.020439,240.042969
	C121.762497,242.124161 117.523094,244.243301 113.137573,246.672485
	C112.250000,247.000000 111.500000,247.000000 110.375000,247.000000
	C98.094154,241.022812 86.094360,235.223694 74.314011,229.008636
	C65.830582,224.532928 57.613064,219.547760 49.352390,214.662247
	C48.339233,214.063049 47.793392,212.673706 47.089088,211.289398
	C54.323112,214.537750 61.471298,218.203766 68.681763,221.742874
	C78.464020,226.544327 88.543869,230.807281 98.006622,236.165588
	C103.393478,239.215927 107.059578,238.132935 112.098671,235.461868
	C124.284660,229.002487 137.240128,223.986969 149.379730,217.450287
	C159.397141,212.056320 168.721741,205.365372 178.281311,199.138580
	C180.703430,197.560898 182.728851,195.375687 185.146042,193.788757
	C194.454193,187.677765 197.764725,177.252609 202.590073,168.253067
	C205.751831,162.356186 205.580856,154.672379 207.254791,147.127045
	C207.737015,133.519135 207.942368,120.573318 207.982269,107.626999
	C208.084686,74.395813 208.113663,41.164402 208.346466,7.852679
	C208.740753,7.618967 208.886795,7.413264 209.384827,7.076064
	C211.540390,6.997972 213.270187,6.998986 215.000000,7.000000
	C215.000000,57.354229 215.000000,107.708458 215.000000,158.531342
z"/>
<path fill="#CFCFCF" opacity="1.000000" stroke="none"
	d="
M206.047775,1.822949
	C205.053467,1.880920 204.059158,1.989631 203.064850,1.989621
	C136.674042,1.988974 70.283226,1.979565 3.429785,1.687978
	C2.967154,1.405040 3.000000,1.000000 3.000000,1.000000
	C70.354225,1.000000 137.708450,1.000000 205.556259,1.204984
	C206.049835,1.409969 206.047775,1.822949 206.047775,1.822949
z"/>
<path fill="#F0F0EF" opacity="1.000000" stroke="none"
	d="
M2.500000,1.000000
	C3.000000,1.000000 2.967154,1.405040 2.964828,1.608212
	C2.648610,3.343419 2.062080,4.875166 2.060457,6.407534
	C2.012295,51.870289 2.010144,97.333122 2.053510,142.795883
	C2.056032,145.439728 2.626100,148.080673 2.678739,150.728012
	C2.699004,151.747192 2.011567,152.780457 1.323291,153.403656
	C1.000000,103.666672 0.992158,54.333336 1.041897,5.000060
	C1.043242,3.666386 1.666667,2.333339 2.500000,1.000000
z"/>
<path fill="#FCFCFC" opacity="1.000000" stroke="none"
	d="
M206.374847,2.041439
	C206.047775,1.822949 206.049835,1.409969 206.024918,1.204984
	C208.897064,1.000000 211.794144,1.000000 215.000000,1.000000
	C215.000000,2.662102 215.000000,4.332304 215.000000,6.501253
	C213.270187,6.998986 211.540390,6.997972 209.176575,7.027028
	C208.542557,7.057098 208.115875,7.089483 207.877289,7.026567
	C207.638718,6.963651 207.145355,6.953998 207.145355,6.953998
	C206.997528,5.389308 206.849716,3.824619 206.374847,2.041439
z"/>
<path fill="#FCFCFC" opacity="1.000000" stroke="none"
	d="
M25.887985,131.118073
	C19.998682,129.839767 18.540352,127.925079 20.960405,122.534966
	C26.915771,109.270767 33.434246,96.260208 39.488758,83.038895
	C40.519470,80.788101 40.372604,77.998047 40.939606,74.370529
	C47.074135,69.661629 52.684597,70.849670 59.780701,80.076591
	C66.347397,96.040665 72.745552,111.367050 79.550941,127.668961
	C76.505119,128.656708 72.692215,129.893219 68.879311,131.129730
	C66.408310,128.258011 63.937305,125.386292 61.187511,121.876831
	C60.285793,117.094376 58.052582,115.407089 53.756321,115.935204
	C50.659988,116.315826 47.479195,116.009254 44.336071,116.009369
	C36.785912,116.009636 35.305309,116.409485 34.573654,123.741203
	C33.949165,129.999008 30.634638,130.856339 25.887985,131.118073
M43.098930,102.649597
	C42.862633,103.652657 42.626331,104.655708 42.144337,106.701698
	C46.791168,105.782455 50.635300,105.021996 54.591530,104.239365
	C52.631229,99.051147 50.951027,94.604248 48.780724,88.860229
	C46.619892,94.124336 45.016800,98.029701 43.098930,102.649597
z"/>
<path fill="#FBFBFB" opacity="1.000000" stroke="none"
	d="
M102.606262,132.593140
	C99.803360,129.433762 96.055092,126.707306 94.373154,123.034576
	C89.132614,111.591187 84.777351,99.745804 79.854225,88.151672
	C78.245621,84.363365 75.948715,80.867332 73.863045,77.048012
	C79.272385,69.678329 86.032143,70.152107 91.577644,79.344841
	C95.552879,91.791786 98.679413,103.844673 104.586281,115.854355
	C105.901405,114.028023 106.531754,113.152657 107.162094,112.277290
	C114.697548,100.774231 119.272995,88.484917 117.486877,74.283157
	C124.874428,70.208542 130.091599,71.152626 132.919434,78.035942
	C132.751450,81.111458 132.715607,83.466858 132.159821,85.692406
	C128.127655,101.838585 119.182053,115.390778 109.136665,128.274811
	C107.615692,130.225586 104.815010,131.178604 102.606262,132.593140
z"/>
<path fill="#FCFCFC" opacity="1.000000" stroke="none"
	d="
M157.916870,131.087280
	C152.697586,130.385727 151.856323,126.718552 151.995972,122.369919
	C152.331421,111.923439 152.656677,101.476646 152.969757,90.125084
	C152.953461,87.646507 152.953461,86.072823 152.953461,83.615318
	C148.231186,84.122345 144.112564,84.564560 139.993927,85.006775
	C139.640671,85.099426 139.287415,85.192085 138.443268,85.469757
	C136.595078,83.066864 135.237808,80.478943 133.880524,77.891029
	C134.294342,72.344109 138.343384,71.931511 142.483032,72.031952
	C151.741104,72.256569 160.993790,72.871269 170.250549,72.913544
	C175.149567,72.935913 180.052536,72.092430 185.756302,71.565727
	C186.315186,72.964645 187.145370,75.042686 188.011505,77.864441
	C187.759186,83.209824 184.918930,84.956635 180.717728,84.973473
	C178.231918,84.983444 175.667740,85.061043 173.275620,84.512085
	C169.031143,83.538063 167.971970,85.328606 168.049332,89.180771
	C168.311722,102.245537 168.406219,115.313675 168.576294,129.323105
	C165.645874,129.808105 161.781372,130.447693 157.916870,131.087280
z"/>
<path fill="#F8F8F8" opacity="1.000000" stroke="none"
	d="
M155.666016,36.752113
	C167.983841,32.488071 171.342361,22.408674 173.497314,10.040319
	C175.450546,23.888388 180.032440,34.449162 194.250107,38.113731
	C179.791229,41.952095 175.700500,53.078671 173.463058,66.784973
	C171.179291,52.892460 167.070480,41.455536 150.784927,38.192081
	C153.154114,37.497704 154.237213,37.180256 155.666016,36.752113
z"/>
<path fill="#9D9E9E" opacity="1.000000" stroke="none"
	d="
M158.029709,131.435257
	C161.781372,130.447693 165.645874,129.808105 168.576294,129.323105
	C168.406219,115.313675 168.311722,102.245537 168.049332,89.180771
	C167.971970,85.328606 169.031143,83.538063 173.275620,84.512085
	C175.667740,85.061043 178.231918,84.983444 180.717728,84.973473
	C184.918930,84.956635 187.759186,83.209824 188.107361,78.218765
	C192.701340,75.624901 192.644928,79.640533 193.441788,81.963570
	C194.720627,85.691666 194.166916,89.416382 189.824326,90.306290
	C186.184723,91.052124 182.255066,90.541916 178.466492,90.344711
	C175.986343,90.215622 174.091278,90.404114 174.118423,93.524544
	C174.235413,106.973640 174.339584,120.422836 174.454147,134.579437
	C167.704361,138.881805 160.697449,138.045624 158.029709,131.435257
z"/>
<path fill="#9C9D9D" opacity="1.000000" stroke="none"
	d="
M133.676941,77.918823
	C135.237808,80.478943 136.595078,83.066864 138.289536,85.711586
	C138.082352,89.314278 138.044693,93.032928 136.904861,96.375755
	C132.264267,109.985390 124.741112,122.074661 116.007309,133.371872
	C111.063057,139.767303 107.063347,139.502045 102.677757,132.924561
	C104.815010,131.178604 107.615692,130.225586 109.136665,128.274811
	C119.182053,115.390778 128.127655,101.838585 132.159821,85.692406
	C132.715607,83.466858 132.751450,81.111458 133.045288,78.376114
	C133.062592,77.936058 133.473373,77.946617 133.676941,77.918823
z"/>
<path fill="#9D9E9E" opacity="1.000000" stroke="none"
	d="
M25.937180,131.493591
	C30.634638,130.856339 33.949165,129.999008 34.573654,123.741203
	C35.305309,116.409485 36.785912,116.009636 44.336071,116.009369
	C47.479195,116.009254 50.659988,116.315826 53.756321,115.935204
	C58.052582,115.407089 60.285793,117.094376 60.954781,121.619049
	C57.512062,121.998306 54.023277,121.997101 50.534496,121.997009
	C42.894924,121.996826 40.677288,123.412338 40.251797,131.002914
	C39.965836,136.104324 36.984657,136.543900 33.502827,136.917664
	C29.732931,137.322311 26.399492,136.658676 25.937180,131.493591
z"/>
<path fill="#F5F5F5" opacity="1.000000" stroke="none"
	d="
M53.848705,163.077301
	C55.810959,170.317444 58.507271,176.603134 66.908714,178.919968
	C58.172543,181.251968 55.701130,188.222641 53.539757,196.628799
	C52.281525,187.533249 48.851158,181.251190 39.352177,178.763000
	C48.542583,176.685745 52.069660,170.959000 53.234756,163.293701
	C53.280464,162.992981 53.376476,162.699921 53.449051,162.403290
	C53.548950,162.535812 53.648849,162.668350 53.848705,163.077301
z"/>
<path fill="#9C9D9D" opacity="1.000000" stroke="none"
	d="
M68.957802,131.469894
	C72.692215,129.893219 76.505119,128.656708 79.550941,127.668961
	C72.745552,111.367050 66.347397,96.040665 59.999374,80.331177
	C62.292492,83.026978 65.119637,85.840096 66.664917,89.236450
	C70.703812,98.113503 74.016747,107.318359 77.945663,116.248863
	C80.322945,121.652466 83.308609,126.788406 86.030281,132.062729
	C79.343620,138.755051 73.554901,138.684509 68.957802,131.469894
z"/>
<path fill="#CACACA" opacity="1.000000" stroke="none"
	d="
M207.040131,7.415466
	C207.145355,6.953998 207.638718,6.963651 207.859299,7.239591
	C208.079880,7.515531 208.171997,7.933079 208.171997,7.933079
	C208.113663,41.164402 208.084686,74.395813 207.982269,107.626999
	C207.942368,120.573318 207.737015,133.519135 207.293488,146.749603
	C206.964920,100.648338 206.949921,54.262638 207.040131,7.415466
z"/>
<path fill="#9E9F9F" opacity="1.000000" stroke="none"
	d="
M106.800476,112.138565
	C106.531754,113.152657 105.901405,114.028023 104.586281,115.854355
	C98.679413,103.844673 95.552879,91.791786 91.816147,79.594841
	C93.591537,81.113243 96.070740,82.735519 96.938583,84.980652
	C100.379059,93.881248 103.315567,102.976646 106.800476,112.138565
z"/>
<path fill="#9A9B9B" opacity="1.000000" stroke="none"
	d="
M140.078110,85.363403
	C144.112564,84.564560 148.231186,84.122345 152.953461,83.615318
	C152.953461,86.072823 152.953461,87.646507 152.915680,89.666229
	C149.502335,90.483742 146.126770,90.855217 142.290298,91.277420
	C141.648865,89.602287 140.905579,87.661156 140.078110,85.363403
z"/>
<path fill="#5F5F5E" opacity="1.000000" stroke="none"
	d="
M208.346466,7.852679
	C208.171997,7.933079 208.079880,7.515531 208.097870,7.302507
	C208.115875,7.089483 208.542557,7.057098 208.750824,7.106134
	C208.886795,7.413264 208.740753,7.618967 208.346466,7.852679
z"/>
<path fill="#9E9F9F" opacity="1.000000" stroke="none"
	d="
M43.256317,102.292328
	C45.016800,98.029701 46.619892,94.124336 48.780724,88.860229
	C50.951027,94.604248 52.631229,99.051147 54.591530,104.239365
	C50.635300,105.021996 46.791168,105.782455 42.144337,106.701698
	C42.626331,104.655708 42.862633,103.652657 43.256317,102.292328
z"/>
</svg>

<svg xmlns="http://www.w3.org/2000/svg" xml:space="preserve" viewBox="0 0 214 246"><path fill="#2c2b2a" d="M1 155c0-.444 0-.889.323-1.263.689-.957 1.376-1.99 1.356-3.009-.053-2.647-.623-5.288-.625-7.932Q1.988 74.6 2.06 6.408c.002-1.533.589-3.065 1.367-4.517 66.856.089 133.247.098 199.638.099.994 0 1.988-.11 3.31.051.475 1.784.623 3.348.665 5.374-.09 46.848-.075 93.233-.099 139.996-1.36 7.261-1.19 14.945-4.35 20.842-4.826 9-8.137 19.425-17.445 25.536-2.417 1.587-4.443 3.772-6.865 5.35-9.56 6.226-18.884 12.917-28.901 18.311-12.14 6.537-25.095 11.552-37.281 18.012-5.04 2.67-8.706 3.754-14.092.704-9.463-5.359-19.543-9.622-29.325-14.423a708 708 0 0 1-21.701-11.127c-11.412-7.52-21.331-16.233-29.838-26.536-6.507-7.882-10.91-16.803-13.29-26.756-.288-1.2.059-4-2.853-2.324m186.976-77.88-2.22-5.554c-5.703.526-10.606 1.37-15.505 1.348-9.257-.043-18.51-.657-27.768-.882-4.14-.1-8.189.312-9.01 5.915 0 0-.41-.01-.662-.691-2.72-6.103-7.937-7.047-15.324-2.973 1.786 14.202-2.79 26.491-11.048 37.717-3.123-9.023-6.06-18.119-9.5-27.02-.868-2.244-3.347-3.867-5.563-6.275-5.344-8.553-12.104-9.027-17.513-1.657 2.086 3.82 4.383 7.315 5.991 11.104 4.923 11.594 9.279 23.44 14.52 34.883 1.681 3.672 5.43 6.399 8.375 10.221 4.314 6.246 8.314 6.511 13.258.116 8.734-11.297 16.257-23.387 20.898-36.996 1.14-3.343 1.177-7.062 2.03-11.091.352-.093.706-.186 1.227.435l2.128 5.557c3.837-.422 7.212-.793 10.696-.247-.33 10.447-.655 20.893-.99 31.34-.14 4.349.702 8.016 6.147 9.413 2.554 6.263 9.561 7.099 16.311 2.796-.114-14.156-.219-27.605-.336-41.054-.027-3.12 1.868-3.31 4.348-3.18 3.79.197 7.719.707 11.358-.039 4.343-.89 4.897-4.614 3.618-8.342-.797-2.323-.74-6.34-5.466-4.843M59.612 79.439c-6.927-8.59-12.538-9.777-18.672-5.068-.567 3.627-.42 6.417-1.451 8.668-6.055 13.221-12.573 26.232-18.529 39.496-2.42 5.39-.961 7.305 5.026 9.334.413 4.79 3.747 5.453 7.517 5.049 3.482-.374 6.463-.814 6.749-5.915.425-7.59 2.643-9.006 10.282-9.006 3.49 0 6.978.001 10.932.518 2.471 2.871 4.942 5.743 7.57 9.295 4.519 6.875 10.308 6.945 16.994.253-2.721-5.275-5.707-10.41-8.084-15.814-3.93-8.93-7.242-18.135-11.281-27.013-1.545-3.396-4.373-6.209-7.053-9.797m95.708-42.576-4.535 1.33c16.285 3.263 20.394 14.7 22.678 28.592 2.238-13.706 6.328-24.833 20.787-28.671-14.218-3.665-18.8-14.226-20.753-28.074-2.155 12.369-5.513 22.448-18.177 26.823M53.75 162.8l-.3-.398c-.073.297-.169.59-.214.89-1.165 7.666-4.692 13.393-13.883 15.47 9.5 2.488 12.93 8.77 14.188 17.866 2.161-8.406 4.633-15.377 13.369-17.709-8.402-2.317-11.098-8.603-13.16-16.12"/><path fill="#fefefe" d="M1 155.469c2.912-2.144 2.565.656 2.852 1.855 2.381 9.953 6.784 18.874 13.291 26.756 8.507 10.303 18.426 19.016 29.78 26.898.87 1.696 1.416 3.085 2.43 3.684 8.26 4.886 16.478 9.87 24.961 14.347C86.094 235.224 98.094 241.023 110 247H1z"/><path fill="#737372" d="M215 158.531c-1.904 6.59-3.612 12.78-5.753 18.818-4.418 12.459-13.238 21.685-23.31 29.611-18.134 14.27-39.391 23.05-59.917 33.083-4.258 2.081-8.497 4.2-12.882 6.63-.888.327-1.638.327-2.763.327-12.28-5.977-24.28-11.776-36.061-17.991-8.483-4.476-16.7-9.461-24.962-14.347-1.013-.599-1.559-1.988-2.263-3.373 7.234 3.249 14.382 6.915 21.593 10.454 9.782 4.801 19.862 9.064 29.325 14.423 5.386 3.05 9.053 1.967 14.092-.704 12.186-6.46 25.141-11.475 37.28-18.012 10.018-5.394 19.343-12.085 28.902-18.311 2.422-1.578 4.448-3.763 6.865-5.35 9.308-6.111 12.619-16.536 17.444-25.536 3.162-5.897 2.99-13.58 4.665-21.126.482-13.608.687-26.554.727-39.5.103-33.231.132-66.463.364-99.774.395-.234.54-.44 1.039-.777C211.54 6.998 213.27 7 215 7z"/><path fill="#cfcfcf" d="M206.048 1.823c-.995.058-1.989.167-2.983.167-66.391-.001-132.782-.01-199.635-.302C2.967 1.405 3 1 3 1c67.354 0 134.708 0 202.556.205.494.205.492.618.492.618"/><path fill="#f0f0ef" d="M2.5 1c.5 0 .467.405.465.608-.316 1.735-.903 3.267-.905 4.8Q1.988 74.6 2.054 142.796c.002 2.644.572 5.285.625 7.932.02 1.02-.667 2.052-1.356 2.676C1 103.667.993 54.334 1.042 5c.001-1.334.625-2.667 1.458-4"/><path fill="#fcfcfc" d="M206.375 2.041c-.327-.218-.325-.631-.35-.836C208.897 1 211.795 1 215 1v5.501c-1.73.498-3.46.497-5.823.526-.634.03-1.061.062-1.3 0-.238-.063-.732-.073-.732-.073-.147-1.565-.295-3.13-.77-4.913M25.888 131.118c-5.89-1.278-7.348-3.193-4.928-8.583 5.956-13.264 12.474-26.275 18.529-39.496 1.03-2.25.884-5.041 1.45-8.668 6.135-4.71 11.746-3.521 18.842 5.706 6.566 15.964 12.965 31.29 19.77 47.592l-10.672 3.46c-2.47-2.871-4.942-5.743-7.691-9.252-.902-4.783-3.135-6.47-7.432-5.942-3.096.38-6.277.074-9.42.074-7.55 0-9.03.4-9.762 7.732-.625 6.258-3.94 7.115-8.686 7.377m17.21-28.468c-.235 1.003-.472 2.006-.954 4.052l12.448-2.463L48.78 88.86a3563 3563 0 0 1-5.682 13.79"/><path fill="#fbfbfb" d="M102.606 132.593c-2.803-3.16-6.55-5.886-8.233-9.558-5.24-11.444-9.596-23.29-14.519-34.883-1.608-3.789-3.905-7.285-5.991-11.104 5.41-7.37 12.17-6.896 17.715 2.297 3.975 12.447 7.101 24.5 13.008 36.51l2.576-3.578c7.536-11.503 12.111-23.792 10.325-37.994 7.387-4.074 12.605-3.13 15.432 3.753-.168 3.075-.203 5.43-.76 7.656-4.031 16.147-12.977 29.699-23.022 42.583-1.521 1.95-4.322 2.904-6.53 4.318"/><path fill="#fcfcfc" d="M157.917 131.087c-5.22-.701-6.06-4.368-5.921-8.717.335-10.447.66-20.893.974-32.245-.017-2.478-.017-4.052-.017-6.51l-12.96 1.392c-.352.092-.706.185-1.55.463-1.848-2.403-3.205-4.991-4.562-7.579.413-5.547 4.462-5.96 8.602-5.859 9.258.225 18.51.84 27.768.882 4.899.022 9.802-.822 15.505-1.348.56 1.399 1.39 3.477 2.256 6.298-.253 5.346-3.093 7.093-7.294 7.11-2.486.01-5.05.087-7.442-.462-4.245-.974-5.304.817-5.227 4.669.263 13.065.357 26.133.527 40.142z"/><path fill="#f8f8f8" d="M155.666 36.752c12.318-4.264 15.676-14.343 17.831-26.712 1.954 13.848 6.535 24.41 20.753 28.074-14.459 3.838-18.55 14.965-20.787 28.671-2.284-13.893-6.393-25.33-22.678-28.593 2.37-.694 3.452-1.012 4.881-1.44"/><path fill="#9d9e9e" d="M158.03 131.435c3.751-.987 7.616-1.627 10.546-2.112-.17-14.01-.264-27.077-.527-40.142-.077-3.852.982-5.643 5.227-4.669 2.392.549 4.956.471 7.442.461 4.2-.016 7.041-1.763 7.39-6.754 4.593-2.594 4.537 1.422 5.334 3.745 1.279 3.728.725 7.452-3.618 8.342-3.64.746-7.569.236-11.358.039-2.48-.13-4.375.06-4.348 3.18.117 13.449.222 26.898.336 41.054-6.75 4.303-13.757 3.467-16.424-3.144"/><path fill="#9c9d9d" d="M133.677 77.919c1.56 2.56 2.918 5.148 4.613 7.793-.208 3.602-.245 7.32-1.385 10.664-4.64 13.61-12.164 25.699-20.898 36.996-4.944 6.395-8.944 6.13-13.33-.447 2.138-1.746 4.939-2.7 6.46-4.65 10.045-12.884 18.99-26.436 23.023-42.583.556-2.225.591-4.58.885-7.316.018-.44.428-.43.632-.457"/><path fill="#9d9e9e" d="M25.937 131.494c4.698-.638 8.012-1.495 8.637-7.753.731-7.332 2.212-7.731 9.762-7.732 3.143 0 6.324.307 9.42-.074 4.297-.528 6.53 1.16 7.199 5.684-3.443.38-6.932.378-10.42.378-7.64 0-9.858 1.415-10.283 9.006-.286 5.101-3.267 5.54-6.75 5.915-3.77.404-7.103-.26-7.565-5.424"/><path fill="#f5f5f5" d="M53.849 163.077c1.962 7.24 4.658 13.526 13.06 15.843-8.736 2.332-11.208 9.303-13.37 17.709-1.257-9.096-4.688-15.378-14.187-17.866 9.19-2.077 12.718-7.804 13.883-15.47.045-.3.141-.593.214-.89.1.133.2.265.4.674"/><path fill="#9c9d9d" d="M68.958 131.47c3.734-1.577 7.547-2.813 10.593-3.801-6.805-16.302-13.204-31.628-19.552-47.338 2.293 2.696 5.12 5.51 6.666 8.905 4.039 8.878 7.352 18.082 11.28 27.013 2.378 5.403 5.364 10.54 8.085 15.814-6.686 6.692-12.475 6.622-17.072-.593"/><path fill="#cacaca" d="M207.04 7.415c.105-.461.599-.451.82-.175s.312.693.312.693c-.058 33.231-.087 66.463-.19 99.694-.04 12.946-.245 25.892-.689 39.123-.328-46.102-.343-92.487-.253-139.335"/><path fill="#9e9f9f" d="M106.8 112.139c-.268 1.014-.899 1.889-2.214 3.715-5.907-12.01-9.033-24.062-12.77-36.26 1.776 1.52 4.255 3.142 5.123 5.387 3.44 8.9 6.377 17.996 9.861 27.158"/><path fill="#9a9b9b" d="M140.078 85.363c4.035-.798 8.153-1.24 12.875-1.748 0 2.458 0 4.032-.037 6.051-3.414.818-6.79 1.19-10.626 1.611a301 301 0 0 1-2.212-5.914"/><path fill="#5f5f5e" d="M208.346 7.853c-.174.08-.266-.337-.248-.55s.445-.246.653-.197c.136.307-.01.513-.405.747"/><path fill="#9e9f9f" d="M43.256 102.292c1.76-4.262 3.364-8.168 5.525-13.432l5.81 15.38-12.447 2.462c.482-2.046.719-3.05 1.112-4.41"/></svg>
